!!!OTL: 1120. Abendlust der Zecher.
!!!ARE: Europa, Mitteleuropa, Deutschland
!!!SCT: E1120C
!!!YEM: Copyright 1995, estate of Helmut Schaffrath.
**kern
*ICvox
*M4/4
*met(c)
*k[f#]
*G:
!LO:TX:a:t=Slaepen gaen.
!LO:TX:a:t=Thyſius Lautenb. c. 1600. ed. von Prof. Land S. 60.
{4d
=1
4g
4g
4a
4a
=2
4b/
4b/
2a}
=3
{4b/
4g
4g
4f#
=4
2g
4r}
{4d
=5
4g
4g
4a
4a
=6
4b/
4b/
2a}
=7
{4b/
4g
4g
4f#
=8
2g
4r}
{4g
=9
4dd
4dd
4a
4a
=10
4b/
4b/
2a}
=11
{4dd
4dd
4a
4a
=12
4b/
4b/
2a}
=13
{4b/
4g
4g
4f#
=14
2.g;}
==
!!!AGN: Trink -, Zech - Lied
!!!ONB: ESAC (Essen Associative Code) Database: ERK3
!!!AMT: simple quadruple
!!!AIN: vox
!!!EED: Helmut Schaffrath
!!!EEV: 1.0
!!!GTL: Trink- und Zechlieder.
!!!URL-scan: https://rosdok.uni-rostock.de/mcrviewer/recordIdentifier/rosdok_ppn745177999/iview2/phys_0062.iview2?x=178.18540850895147&y=1313.6966927197354&scale=0.701185927818147&rotation=0&layout=singlePageLayout
!!!ENC: Anna Maria Matuszewska
!!!EEV: 2024/12/23
*-
